svg/device/monitor_line.svg

<svg xmlns="http://www.w3.org/2000/svg" width="24" height="24" viewBox="0 0 24 24"><g fill="none" fill-rule="evenodd"><path d="M24,0 L24,24 L0,24 L0,0 L24,0 Z M12.5935,23.2578 L12.5819,23.2595 L12.5109,23.295 L12.4919,23.2987 L12.4767,23.295 L12.4057,23.2595 C12.3958,23.2564 12.387,23.259 12.3821,23.2649 L12.378,23.2758 L12.3609,23.7031 L12.3659,23.7235 L12.3769,23.7357 L12.4805,23.8097 L12.4953,23.8136 L12.5071,23.8097 L12.6107,23.7357 L12.6233,23.7197 L12.6267,23.7031 L12.6096,23.2758 C12.6076,23.2657 12.601,23.2593 12.5935,23.2578 Z M12.8584,23.1453 L12.8445,23.1473 L12.6598,23.2397 L12.6499,23.2499 L12.6472,23.2611 L12.6651,23.6906 L12.6699,23.7034 L12.6784,23.7105 L12.8793,23.8032 C12.8914,23.8069 12.9022,23.803 12.9078,23.7952 L12.9118,23.7812 L12.8777,23.1665 C12.8753,23.1546 12.8674,23.147 12.8584,23.1453 Z M12.143,23.1473 C12.1332,23.1424 12.1222,23.1453 12.1156,23.1526 L12.1099,23.1665 L12.0758,23.7812 C12.0751,23.7927 12.0828,23.8019 12.0926,23.8046 L12.1083,23.8032 L12.3092,23.7105 L12.3186,23.7024 L12.3225,23.6906 L12.3404,23.2611 L12.3372,23.2485 L12.3278,23.2397 L12.143,23.1473 Z"/><path fill="#09244B" d="M19.6593,4.21569 C20.8681,4.02198 22,4.9444 22,6.19972 L22,15.8004 C22,17.0558 20.8681,17.9782 19.6593,17.7845 C17.4127,17.4244 15.2038,17.2207 13,17.1734 L13,18.5354 C13.7131,18.5837 14.3796,18.6746 14.9144,18.7637 C15.3564,18.8374 15.7977,18.9214 16.2331,19.0276 C16.7605,19.1578 17.1025,19.7131 16.9701,20.2426 C16.8362,20.7783 16.2936,21.104 15.7579,20.9703 C15.3709,20.8758 14.9785,20.802 14.5856,20.7365 C13.865,20.6164 12.9244,20.5001 12,20.5001 C11.0756,20.5001 10.135,20.6164 9.4144,20.7365 C9.02161,20.8019 8.62926,20.8747 8.24254,20.9702 C7.70684,21.104 7.16378,20.7783 7.02986,20.2426 C6.89591,19.7068 7.22167,19.1639 7.75746,19.0299 C8.19559,18.9209 8.6404,18.8379 9.0856,18.7637 C9.62036,18.6746 10.2869,18.5837 11,18.5354 L11,17.1734 C8.79615,17.2207 6.58733,17.4244 4.34065,17.7845 C3.1319,17.9782 2,17.0558 2,15.8004 L2,6.19972 C2,4.9444 3.13191,4.02198 4.34065,4.21569 C9.5138,5.04477 14.4862,5.04477 19.6593,4.21569 Z M19.9832,6.18999359 C19.9832,6.18999359 19.9796,6.18999359 19.9758,6.19049 C14.593,7.05317 9.40696,7.05317 4.02416,6.19049 C4.02042,6.18999359 4.01683,6.18999359 4.01683,6.18999359 L4.01288,6.19068 C4.00996,6.19152 4.00631,6.19331 4.00297,6.19611 L4,6.19906 L4,15.8004 L4.00297,15.8041 C4.00631,15.8069 4.00996,15.8086 4.01288,15.8095 L4.01683,15.8102063 C4.01683,15.8102063 4.02042,15.8102063 4.02416,15.8097 C9.40696,14.947 14.593,14.947 19.9758,15.8097 C19.9796,15.8102063 19.9832,15.8102063 19.9832,15.8102063 L19.9848,15.81 L19.9871,15.8095 C19.99,15.8086 19.9937,15.8069 19.997,15.8041 L20,15.8011 L20,6.19972 L19.997,6.19611 C19.9937,6.19331 19.99,6.19152 19.9871,6.19068 L19.9832,6.18999359 Z"/></g></svg>

<svg xmlns="http://www.w3.org/2000/svg" width="24" height="24"><g fill="none" fill-rule="evenodd"><path d="M24 0v24H0V0zM12.594 23.258l-.012.002-.071.035-.02.004-.014-.004-.071-.036c-.01-.003-.019 0-.024.006l-.004.01-.017.428.005.02.01.013.104.074.015.004.012-.004.104-.074.012-.016.004-.017-.017-.427c-.002-.01-.009-.017-.016-.018m.264-.113-.014.002-.184.093-.01.01-.003.011.018.43.005.012.008.008.201.092c.012.004.023 0 .029-.008l.004-.014-.034-.614c-.003-.012-.01-.02-.02-.022m-.715.002a.023.023 0 0 0-.027.006l-.006.014-.034.614c0 .012.007.02.017.024l.015-.002.201-.093.01-.008.003-.011.018-.43-.003-.012-.01-.01z"/><path fill="#09244B" d="M19.66 4.216C20.867 4.022 22 4.944 22 6.2v9.6c0 1.256-1.132 2.178-2.34 1.985a48.519 48.519 0 0 0-6.66-.612v1.362c.713.049 1.38.14 1.914.229.442.073.884.157 1.32.264.526.13.868.685.736 1.215a1 1 0 0 1-1.212.727 16.1 16.1 0 0 0-1.172-.233A16.24 16.24 0 0 0 12 20.5c-.924 0-1.865.116-2.586.236-.392.066-.785.139-1.171.234a1 1 0 0 1-.486-1.94 17.23 17.23 0 0 1 1.329-.266c.534-.09 1.2-.18 1.914-.229v-1.362a48.52 48.52 0 0 0-6.66.612C3.133 17.978 2 17.055 2 15.8V6.2c0-1.256 1.132-2.178 2.34-1.984 5.174.829 10.146.829 15.32 0m.323 1.974h-.007a49.483 49.483 0 0 1-15.952 0h-.011a.028.028 0 0 0-.01.006L4 6.2V15.8l.003.004a.029.029 0 0 0 .01.005l.004.001h.007a49.482 49.482 0 0 1 15.952 0H19.987a.029.029 0 0 0 .01-.006l.003-.003V6.2l-.003-.004a.028.028 0 0 0-.01-.005z"/></g></svg>
